X:341
T: "Die Elftausend"
N: Z1021
O: Europa, Mitteleuropa, Deutschland, Niederrhein
R: Romanze, Ballade, Tod, geistlich, Sage (Hl. Ursula)
M: 4/4
L: 1/8
K: G
G2 | G2d2dc_B2 | A2A2z2
A2 | _Bcd2dcB2 | A4z2
G2 | d2d2=fed^c | d4c2
A2 | d2d2=fed^c | d4c_B
A2 | _B2AGd2d2 | G4z2

@@@ Tune index: 10099
